img/logo/logo.svg

<svg width="121" height="32" viewBox="0 0 121 32" fill="none" xmlns="http://www.w3.org/2000/svg">
<path d="M34.0444 25.5279V8.17853H26.8125V6.0105H43.4392V8.17853H36.2124V25.5279H34.0444Z" fill="#2D3388"/>
<path d="M74.6338 14.3366C74.6338 9.73585 78.3642 6.0105 82.9599 6.0105H89.8151V8.17853H83.2805C79.7027 8.17853 76.8018 11.0794 76.8018 14.6572V16.8863C76.8018 20.4641 79.7027 23.3649 83.2805 23.3649H89.8151V25.533H82.9599C78.3591 25.533 74.6338 21.8025 74.6338 17.2069V14.3366Z" fill="#2D3388"/>
<path d="M95.1563 10.3467H92.9883V25.528H95.1563V10.3467Z" fill="#2D3388"/>
<path d="M95.1563 6.0105H92.9883V8.17853H95.1563V6.0105Z" fill="#2D3388"/>
<path d="M52.3073 10.3467H44.4393V12.5147H51.9867C53.0096 12.5147 53.8392 13.3443 53.8392 14.3672V16.1332H47.4216C45.3757 16.1332 43.7217 17.7923 43.7217 19.8331V20.4693V21.8281C43.7217 23.874 45.3808 25.528 47.4216 25.528H54.6229C55.3914 25.528 56.0123 24.9071 56.0123 24.1386V14.0517C56.0072 12.0058 54.3532 10.3467 52.3073 10.3467ZM53.8392 23.36H47.7371C46.7142 23.36 45.8846 22.5304 45.8846 21.5075V21.1919V20.1486C45.8846 19.1257 46.7142 18.2961 47.7371 18.2961H53.8392V23.36Z" fill="#2D3388"/>
<path d="M67.766 10.3467H60.5647C59.7962 10.3467 59.1753 10.9676 59.1753 11.7361V25.528H61.3433V12.5147H67.4454C68.4683 12.5147 69.2979 13.3443 69.2979 14.3672V25.528H71.4659V14.0517C71.4659 12.0058 69.8119 10.3467 67.766 10.3467Z" fill="#2D3388"/>
<path d="M104.513 23.3599C103.49 23.3599 102.66 22.5303 102.66 21.5074V12.5146H106.274V10.3466H102.66V6.0105H100.492V10.3466H98.3242V12.5146H100.492V21.828C100.492 23.8739 102.151 25.5279 104.192 25.5279H106.996V23.3599H104.513Z" fill="#2D3388"/>
<path d="M118.847 10.3467V15.7261C118.847 16.749 118.017 17.5785 116.994 17.5785H115.951H113.462C112.439 17.5785 111.61 16.749 111.61 15.7261V10.3467H109.442V16.0416C109.442 18.0875 111.101 19.7415 113.142 19.7415H115.946H117.305C117.854 19.7415 118.368 19.6193 118.837 19.4056V21.5024C118.837 22.5253 118.007 23.3549 116.984 23.3549H110.159V25.5229H117.3C119.346 25.5229 121 23.8638 121 21.823V16.0467V10.3467H118.847Z" fill="#2D3388"/>
<path d="M0 6.00024V15.0083H9.00803V14.7691C9.00803 13.736 9.28285 12.769 9.75615 11.9293C9.9699 11.5577 10.2193 11.2117 10.5043 10.8961C11.5578 9.73578 13.0744 9.00292 14.7691 9.00292H19.5123V6.00024H0ZM10.5094 16.7488C10.5094 17.7819 10.2345 18.7489 9.76124 19.5886C9.54749 19.9601 9.29812 20.3062 9.01312 20.6217C7.95964 21.7821 6.44303 22.515 4.7483 22.515H0V25.5176H19.5123V16.5096H10.5043V16.7488H10.5094ZM10.5094 14.9879V15.0083H19.5174V10.5043H14.993C12.5145 10.5043 10.5094 12.5094 10.5094 14.9879ZM9.00803 16.53V16.5096H0V21.0136H4.52437C6.99776 21.0136 9.00803 19.0034 9.00803 16.53Z" fill="url(#paint0_linear)"/>
<path d="M4.50401 0H4.48366C2.01027 0 0 2.00518 0 4.48366V4.50401H0.0203572H0.239196H4.10705H5.00276H9.00803V0H6.00535H4.50401Z" fill="#0099DB"/>
<path d="M15.0084 31.5179H15.0288C17.5022 31.5179 19.5124 29.5128 19.5124 27.0343V27.0139H19.4921H19.2732H15.4054H14.5097H10.5044V31.5179H13.5071H15.0084Z" fill="#5A308D"/>
<defs>
<linearGradient id="paint0_linear" x1="0.921618" y1="5.22859" x2="18.5925" y2="26.2879" gradientUnits="userSpaceOnUse">
<stop stop-color="#0099DB"/>
<stop offset="0.4768" stop-color="#32338E"/>
<stop offset="0.528" stop-color="#3A338E"/>
<stop offset="0.7111" stop-color="#52318D"/>
<stop offset="0.8077" stop-color="#5A308D"/>
</linearGradient>
</defs>
</svg>

<svg width="121" height="32" fill="none" xmlns="http://www.w3.org/2000/svg"><path d="M34.044 25.528V8.178h-7.231V6.01h16.626v2.17h-7.227v17.349h-2.168zm40.59-11.191a8.326 8.326 0 018.326-8.326h6.855v2.168h-6.534a6.479 6.479 0 00-6.48 6.478v2.23a6.48 6.48 0 006.48 6.478h6.534v2.168H82.96c-4.6 0-8.326-3.73-8.326-8.326v-2.87zm20.522-3.99h-2.168v15.181h2.168V10.347zm0-4.337h-2.168v2.17h2.168V6.01zm-42.849 4.337H44.44v2.168h7.548c1.023 0 1.852.83 1.852 1.852v1.766h-6.417a3.7 3.7 0 00-3.7 3.7v1.996a3.7 3.7 0 003.7 3.699h7.2c.77 0 1.39-.62 1.39-1.39V14.053a3.709 3.709 0 00-3.705-3.705zM53.84 23.36h-6.102a1.853 1.853 0 01-1.852-1.852v-1.359c0-1.023.83-1.853 1.852-1.853h6.102v5.064zm13.926-13.013h-7.201c-.769 0-1.39.62-1.39 1.39v13.791h2.168V12.515h6.102c1.023 0 1.853.83 1.853 1.852v11.161h2.168V14.052a3.701 3.701 0 00-3.7-3.705zm36.747 13.013a1.853 1.853 0 01-1.853-1.853v-8.992h3.614v-2.168h-3.614V6.01h-2.168v4.336h-2.168v2.168h2.168v9.313a3.7 3.7 0 003.7 3.7h2.804V23.36h-2.483zm14.334-13.013v5.38c0 1.022-.83 1.851-1.853 1.851h-3.532a1.852 1.852 0 01-1.852-1.852v-5.38h-2.168v5.696a3.7 3.7 0 003.7 3.7h4.163c.549 0 1.063-.123 1.532-.336v2.096c0 1.023-.83 1.853-1.853 1.853h-6.825v2.168h7.141a3.7 3.7 0 003.7-3.7V10.347h-2.153z" fill="#2D3388"/><path d="M0 6v9.008h9.008v-.239a5.764 5.764 0 011.496-3.873 5.741 5.741 0 014.265-1.893h4.743V6H0zm10.51 10.75a5.765 5.765 0 01-1.497 3.873 5.741 5.741 0 01-4.265 1.893H0v3.003h19.512V16.51h-9.008v.239h.005zm0-1.761v.02h9.007v-4.504h-4.524a4.48 4.48 0 00-4.484 4.484zM9.007 16.53v-.02H0v4.504h4.524a4.487 4.487 0 004.484-4.484z" fill="url(#paint0_linear)"/><path d="M4.504 0h-.02A4.484 4.484 0 000 4.484v.02h9.008V0H4.504z" fill="#0099DB"/><path d="M15.008 31.518h.02a4.484 4.484 0 004.484-4.484v-.02h-9.008v4.504h4.504z" fill="#5A308D"/><defs><linearGradient id="paint0_linear" x1=".922" y1="5.229" x2="18.593" y2="26.288" gradientUnits="userSpaceOnUse"><stop stop-color="#0099DB"/><stop offset=".477" stop-color="#32338E"/><stop offset=".528" stop-color="#3A338E"/><stop offset=".711" stop-color="#52318D"/><stop offset=".808" stop-color="#5A308D"/></linearGradient></defs></svg>
